X:1
T:Ted’s Tune
C:Marcus Turner
O:New Zealand
P:ABAB
R:Jig
K:G
L:1/8
M:6/8
Q:1/4=160
Z:Based on a tune that Ted taps with his fingers when he's thinking.
P:A
|:"G"GBB "Em"GBB|"D"Add ABA|"G"GBB "Em"GBB|"D"ABA "G"G3|
"G"dBG "Em"dBG|"D"ABc "G"BGB|dBG "Em"dBG|1"D"ABA "G"G3:|2"D"ABA "G"GAB|
P:B
|:"C"cee cee|"G"Bdd Bdd|"C"cee "Am"cee|"G"dcB "D"ABc|
"G"dBG "Em"dBG|"D"ABc "G"BGB|"G"dBG dBG|1"D"ABA "G"GAB:|2"D"ABA "G"G3|]
